icons/showers-day.svg

<svg width="66" height="63" viewBox="0 0 66 63" fill="none" xmlns="http://www.w3.org/2000/svg">
<path d="M0 37.6158C0 40.7564 1.12946 43.4483 3.41295 45.7151C5.69643 47.982 8.47098 49.1627 11.7612 49.328C12.0312 49.328 12.1786 49.1863 12.1786 48.9265V45.7624C12.1786 45.479 12.0312 45.3373 11.7612 45.3373C9.67411 45.2429 7.90625 44.44 6.43304 42.9288C4.95982 41.4175 4.24777 39.6466 4.24777 37.6158C4.24777 35.6323 4.93527 33.9322 6.31027 32.4918C7.68527 31.0514 9.40402 30.2249 11.4665 29.9888L12.6942 29.8943C13.0134 29.8943 13.1853 29.7526 13.1853 29.4693L13.3326 28.2178C13.6027 25.6675 14.7076 23.5187 16.6964 21.8186C18.6853 20.0948 21.0179 19.2448 23.7187 19.2448C26.3951 19.2448 28.7522 20.0948 30.7411 21.8186C32.7299 23.5424 33.8594 25.6675 34.1049 28.2178L34.2768 29.5637C34.2768 29.8471 34.4241 29.9888 34.7187 29.9888H38.8192C40.9799 29.9888 42.8214 30.7444 44.3929 32.2556C45.9643 33.7669 46.75 35.5379 46.75 37.6158C46.75 39.6229 46.0134 41.3703 44.5402 42.8579C43.067 44.3456 41.2991 45.172 39.2366 45.3373C38.9665 45.3373 38.8192 45.479 38.8192 45.7624V48.9265C38.8192 49.1863 38.9665 49.328 39.2366 49.328C41.3973 49.2807 43.3371 48.714 45.1295 47.6278C46.9219 46.5416 48.3214 45.1484 49.3281 43.3774C50.3594 41.6064 50.8504 39.6938 50.8504 37.6158C50.8504 35.9393 50.5067 34.3808 49.8438 32.9876C51.7098 30.768 52.6183 28.1942 52.6183 25.2425C52.6183 23.566 52.2746 21.9603 51.6116 20.4254C50.9487 18.8906 50.0156 17.5918 48.8616 16.482C47.7321 15.3722 46.3571 14.4985 44.7857 13.8609C43.1897 13.1998 41.5201 12.8928 39.7768 12.8928C36.0692 12.8928 32.9509 14.1915 30.4219 16.8126C28.4821 15.7972 26.2478 15.3014 23.7187 15.3014C20.2567 15.3014 17.1875 16.3403 14.5112 18.3947C11.8348 20.449 10.1652 23.0937 9.42857 26.3051C6.67857 26.919 4.39509 28.265 2.62723 30.3666C0.883929 32.4681 0 34.9003 0 37.6158ZM13.2835 53.4367C13.2835 53.8617 13.4063 54.2867 13.6763 54.6882C13.9464 55.1132 14.3147 55.3729 14.7812 55.5382C15.2478 55.7035 15.7634 55.6563 16.279 55.3966C16.8192 55.1368 17.1629 54.7118 17.3594 54.0978L17.9732 51.6184C18.1451 51.1226 18.096 50.6503 17.8013 50.1544C17.5067 49.6585 17.0893 49.328 16.5491 49.1627C15.9353 49.021 15.3951 49.0918 14.904 49.3516C14.4129 49.6113 14.1183 50.06 13.9955 50.6031L13.308 52.9408C13.308 53.0589 13.2835 53.2241 13.2835 53.4367ZM16.5 42.2912C16.5 43.1885 17.0156 43.8025 18.0714 44.1567C18.6116 44.3456 19.1272 44.2984 19.6429 44.0386C20.1585 43.7789 20.4777 43.3538 20.6496 42.7871L21.2388 40.355C21.4107 39.8591 21.3616 39.3868 21.067 38.8909C20.7969 38.3951 20.3795 38.0645 19.8147 37.8992C19.2254 37.7575 18.6607 37.8047 18.1696 38.0881C17.6786 38.3714 17.3839 38.7729 17.2612 39.316L16.5246 41.7245C16.5246 41.9134 16.5 42.1023 16.5 42.2912ZM19.4955 60.922C19.4955 61.2999 19.6429 61.7013 19.9129 62.1027C20.183 62.5041 20.6004 62.7875 21.1161 62.9528C21.1406 62.9528 21.2143 62.9528 21.3616 62.9764C21.5089 63 21.6317 63 21.7299 63C22.0737 63 22.3683 62.9528 22.6384 62.8347C23.1049 62.6458 23.4487 62.1972 23.6451 61.4651L24.308 59.1274C24.4799 58.5843 24.4308 58.0648 24.1362 57.5926C23.8415 57.1203 23.4241 56.7897 22.8839 56.6481C22.3192 56.4828 21.779 56.53 21.2879 56.8133C20.7969 57.0967 20.4531 57.4981 20.3058 58.0176L19.6183 60.4262C19.5201 60.6387 19.4955 60.804 19.4955 60.922ZM20.625 8.80772C20.625 9.39805 20.8214 9.89393 21.2388 10.2717L22.8594 11.8066C23.6942 12.6094 24.6518 12.6094 25.7321 11.8066C26.125 11.4052 26.3214 10.9093 26.3214 10.3662C26.3214 9.82309 26.125 9.35083 25.7321 8.92579L24.1853 7.36732C23.7924 6.98951 23.3013 6.8006 22.7121 6.8006C22.1473 6.8006 21.6562 6.98951 21.2388 7.39093C20.8214 7.76874 20.625 8.241 20.625 8.80772ZM22.8103 49.6113C22.8103 50.0127 22.933 50.4142 23.2031 50.8156C23.4732 51.217 23.8415 51.4768 24.3571 51.6421C24.9219 51.8073 25.4375 51.7601 25.9286 51.524C26.3951 51.2879 26.7388 50.8392 26.9107 50.2016L27.5 47.8167C27.6719 47.2736 27.6228 46.7541 27.3527 46.2819C27.0826 45.8096 26.6652 45.479 26.125 45.3137C25.5112 45.1484 24.9464 45.2193 24.4554 45.5026C23.9643 45.786 23.6451 46.211 23.5469 46.7541L22.8594 49.1863C22.8103 49.2571 22.8103 49.3988 22.8103 49.6113ZM29.6362 53.6728C29.6853 54.5701 30.2009 55.2076 31.183 55.6327L31.7969 55.7271C32.1897 55.7271 32.5826 55.6091 32.9509 55.3493C33.3192 55.0896 33.5893 54.7118 33.7366 54.1687L34.4487 51.7837C34.596 51.217 34.5223 50.6975 34.2277 50.2253C33.933 49.753 33.4911 49.446 32.9263 49.3516C32.4107 49.1863 31.9196 49.2335 31.404 49.5169C30.8884 49.8002 30.5692 50.2017 30.3973 50.7211L29.7344 53.1297C29.7098 53.1769 29.7098 53.2478 29.6853 53.3186C29.6607 53.3894 29.6607 53.4603 29.6362 53.5075C29.6116 53.5547 29.6362 53.6256 29.6362 53.6728ZM33.0737 42.4329C33.0737 42.8107 33.1964 43.1885 33.442 43.5663C33.6875 43.9442 34.0558 44.2039 34.5469 44.322L35.1607 44.3928C35.6272 44.3928 36.0692 44.2511 36.4375 43.9678C36.8058 43.6844 37.0268 43.3066 37.125 42.8579L37.7879 40.5202C37.9598 39.9535 37.9107 39.4576 37.6161 38.9854C37.346 38.5131 36.9286 38.2061 36.3638 38.0645C35.7991 37.8992 35.2589 37.9464 34.7924 38.2061C34.3013 38.4659 33.9821 38.8673 33.8348 39.3868L33.0982 41.8898C33.0982 42.0787 33.0737 42.2676 33.0737 42.4329ZM33.8839 19.1503C35.5045 17.6391 37.4688 16.8834 39.7768 16.8834C42.183 16.8834 44.2455 17.7099 45.9397 19.3392C47.6339 20.9685 48.4933 22.952 48.4933 25.2661C48.4933 26.5885 48.1004 27.9816 47.3393 29.422C44.9821 27.1552 42.1585 26.0454 38.8192 26.0454H37.9844C37.346 23.3534 35.971 21.063 33.8839 19.1503ZM37.6652 6.8006C37.6652 7.39093 37.8616 7.86319 38.2545 8.24101C38.6473 8.61882 39.1384 8.80772 39.7522 8.80772C40.3661 8.80772 40.8571 8.61882 41.25 8.24101C41.6429 7.86319 41.8393 7.39093 41.8393 6.8006V2.03073C41.8393 1.4404 41.6429 0.944528 41.25 0.566717C40.8571 0.188906 40.3661 0 39.7522 0C39.1384 0 38.6473 0.188906 38.2545 0.566717C37.8616 0.944528 37.6652 1.4404 37.6652 2.03073V6.8006ZM51.2924 12.208C51.2924 12.7984 51.4888 13.2706 51.8571 13.6484C52.3728 14.0499 52.8638 14.2388 53.3795 14.2388C53.846 14.2388 54.3125 14.0499 54.8281 13.6484L58.3393 10.2717C58.7321 9.8467 58.9286 9.35083 58.9286 8.78411C58.9286 8.21739 58.7321 7.74513 58.3393 7.36732C57.9464 6.98951 57.4554 6.8006 56.8906 6.8006C56.3259 6.8006 55.8348 6.98951 55.3929 7.36732L51.8571 10.744C51.4888 11.169 51.2924 11.6413 51.2924 12.208ZM53.2321 40.1424C53.2321 40.6855 53.4531 41.1814 53.8705 41.6301L55.3929 43.1413C55.9085 43.6372 56.3996 43.8733 56.9152 43.8733C57.3817 43.8733 57.8728 43.6372 58.3393 43.1413C58.7812 42.7163 59.0022 42.2204 58.9777 41.7009C58.9531 41.1578 58.7567 40.6855 58.3393 40.2841L56.7433 38.7256C56.3504 38.3478 55.8839 38.1589 55.3438 38.1589C54.7545 38.1589 54.2634 38.3478 53.846 38.7493C53.4531 39.1271 53.2321 39.5993 53.2321 40.1424ZM56.8415 25.2425C56.8415 25.762 57.0379 26.2343 57.4308 26.6121C57.8237 26.9899 58.3147 27.1788 58.8549 27.1788H63.8638C64.5022 27.1788 65.0179 26.9899 65.4107 26.6357C65.8036 26.2579 66 25.8092 66 25.2425C66 24.6522 65.8036 24.1563 65.3862 23.7785C64.9688 23.4007 64.4777 23.2118 63.8638 23.2118H58.8549C58.2902 23.2118 57.7991 23.4007 57.4063 23.8021C57.0379 24.2035 56.8415 24.6994 56.8415 25.2425Z" fill="#0F172A"/>
</svg>

<?xml version="1.0" encoding="UTF-8"?><svg id="Layer_2" xmlns="http://www.w3.org/2000/svg" viewBox="0 0 66 63"><defs><style>.cls-1{fill:#5d6d92;}</style></defs><g id="Layer_1-2"><path id="showers-day" class="cls-1" d="M0,37.62c0,3.14,1.13,5.83,3.41,8.1,2.28,2.27,5.06,3.45,8.35,3.61,.27,0,.42-.14,.42-.4v-3.16c0-.28-.15-.43-.42-.43-2.09-.09-3.85-.9-5.33-2.41-1.47-1.51-2.19-3.28-2.19-5.31s.69-3.68,2.06-5.12c1.38-1.44,3.09-2.27,5.16-2.5l1.23-.09c.32,0,.49-.14,.49-.43l.15-1.25c.27-2.55,1.38-4.7,3.36-6.4,1.99-1.72,4.32-2.57,7.02-2.57s5.03,.85,7.02,2.57c1.99,1.72,3.12,3.85,3.36,6.4l.17,1.35c0,.28,.15,.43,.44,.43h4.1c2.16,0,4,.76,5.57,2.27,1.57,1.51,2.36,3.28,2.36,5.36s-.74,3.75-2.21,5.24c-1.47,1.49-3.24,2.31-5.3,2.48-.27,0-.42,.14-.42,.43v3.16c0,.26,.15,.4,.42,.4,2.16-.05,4.1-.61,5.89-1.7s3.19-2.48,4.2-4.25c1.03-1.77,1.52-3.68,1.52-5.76,0-1.68-.34-3.24-1.01-4.63,1.87-2.22,2.77-4.79,2.77-7.75,0-1.68-.34-3.28-1.01-4.82-.66-1.53-1.6-2.83-2.75-3.94-1.13-1.11-2.5-1.98-4.08-2.62-1.6-.66-3.27-.97-5.01-.97-3.71,0-6.83,1.3-9.35,3.92-1.94-1.02-4.17-1.51-6.7-1.51-3.46,0-6.53,1.04-9.21,3.09-2.68,2.05-4.35,4.7-5.08,7.91-2.75,.61-5.03,1.96-6.8,4.06-1.74,2.1-2.63,4.53-2.63,7.25Zm13.28,15.82c0,.42,.12,.85,.39,1.25,.27,.42,.64,.68,1.1,.85,.47,.17,.98,.12,1.5-.14,.54-.26,.88-.68,1.08-1.3l.61-2.48c.17-.5,.12-.97-.17-1.46-.29-.5-.71-.83-1.25-.99-.61-.14-1.15-.07-1.65,.19-.49,.26-.79,.71-.91,1.25l-.69,2.34c0,.12-.02,.28-.02,.5Zm3.22-11.15c0,.9,.52,1.51,1.57,1.87,.54,.19,1.06,.14,1.57-.12,.52-.26,.83-.68,1.01-1.25l.59-2.43c.17-.5,.12-.97-.17-1.46-.27-.5-.69-.83-1.25-.99-.59-.14-1.15-.09-1.65,.19-.49,.28-.79,.68-.91,1.23l-.74,2.41c0,.19-.02,.38-.02,.57Zm3,18.63c0,.38,.15,.78,.42,1.18,.27,.4,.69,.68,1.2,.85,.02,0,.1,0,.25,.02,.15,.02,.27,.02,.37,.02,.34,0,.64-.05,.91-.17,.47-.19,.81-.64,1.01-1.37l.66-2.34c.17-.54,.12-1.06-.17-1.53-.29-.47-.71-.8-1.25-.94-.56-.17-1.1-.12-1.6,.17-.49,.28-.83,.68-.98,1.2l-.69,2.41c-.1,.21-.12,.38-.12,.5Zm1.13-52.11c0,.59,.2,1.09,.61,1.46l1.62,1.53c.83,.8,1.79,.8,2.87,0,.39-.4,.59-.9,.59-1.44s-.2-1.02-.59-1.44l-1.55-1.56c-.39-.38-.88-.57-1.47-.57s-1.06,.19-1.47,.59c-.42,.38-.61,.85-.61,1.42Zm2.19,40.8c0,.4,.12,.8,.39,1.2,.27,.4,.64,.66,1.15,.83,.56,.17,1.08,.12,1.57-.12,.47-.24,.81-.68,.98-1.32l.59-2.38c.17-.54,.12-1.06-.15-1.53-.27-.47-.69-.8-1.23-.97-.61-.17-1.18-.09-1.67,.19-.49,.28-.81,.71-.91,1.25l-.69,2.43c-.05,.07-.05,.21-.05,.43Zm6.83,4.06c.05,.9,.56,1.53,1.55,1.96l.61,.09c.39,0,.79-.12,1.15-.38,.37-.26,.64-.64,.79-1.18l.71-2.39c.15-.57,.07-1.09-.22-1.56-.29-.47-.74-.78-1.3-.87-.52-.17-1.01-.12-1.52,.17-.52,.28-.83,.68-1.01,1.2l-.66,2.41s-.02,.12-.05,.19c-.02,.07-.02,.14-.05,.19-.02,.05,0,.12,0,.17Zm3.44-11.24c0,.38,.12,.76,.37,1.13,.25,.38,.61,.64,1.1,.76l.61,.07c.47,0,.91-.14,1.28-.42,.37-.28,.59-.66,.69-1.11l.66-2.34c.17-.57,.12-1.06-.17-1.53-.27-.47-.69-.78-1.25-.92-.56-.17-1.1-.12-1.57,.14-.49,.26-.81,.66-.96,1.18l-.74,2.5c0,.19-.02,.38-.02,.54Zm.81-23.28c1.62-1.51,3.58-2.27,5.89-2.27s4.47,.83,6.16,2.46c1.69,1.63,2.55,3.61,2.55,5.93,0,1.32-.39,2.72-1.15,4.16-2.36-2.27-5.18-3.38-8.52-3.38h-.83c-.64-2.69-2.01-4.98-4.1-6.9Zm3.78-12.35c0,.59,.2,1.06,.59,1.44,.39,.38,.88,.57,1.5,.57s1.1-.19,1.5-.57c.39-.38,.59-.85,.59-1.44V2.03c0-.59-.2-1.09-.59-1.46-.39-.38-.88-.57-1.5-.57s-1.1,.19-1.5,.57c-.39,.38-.59,.87-.59,1.46V6.8Zm13.63,5.41c0,.59,.2,1.06,.56,1.44,.52,.4,1.01,.59,1.52,.59,.47,0,.93-.19,1.45-.59l3.51-3.38c.39-.43,.59-.92,.59-1.49s-.2-1.04-.59-1.42c-.39-.38-.88-.57-1.45-.57s-1.06,.19-1.5,.57l-3.54,3.38c-.37,.42-.56,.9-.56,1.46Zm1.94,27.93c0,.54,.22,1.04,.64,1.49l1.52,1.51c.52,.5,1.01,.73,1.52,.73,.47,0,.96-.24,1.42-.73,.44-.42,.66-.92,.64-1.44-.02-.54-.22-1.02-.64-1.42l-1.6-1.56c-.39-.38-.86-.57-1.4-.57-.59,0-1.08,.19-1.5,.59-.39,.38-.61,.85-.61,1.39Zm3.61-14.9c0,.52,.2,.99,.59,1.37,.39,.38,.88,.57,1.42,.57h5.01c.64,0,1.15-.19,1.55-.54,.39-.38,.59-.83,.59-1.39s-.2-1.09-.61-1.46-.91-.57-1.52-.57h-5.01c-.56,0-1.06,.19-1.45,.59-.37,.4-.56,.9-.56,1.44Z"/></g></svg>
